images/singl-page/bird-social.svg

<svg width="20" height="16" viewBox="0 0 20 16" fill="none" xmlns="http://www.w3.org/2000/svg">
<path d="M19.688 1.89415C18.9638 2.21527 18.1848 2.43246 17.3679 2.52945C18.202 2.02971 18.8421 1.23897 19.1443 0.295208C18.3638 0.758204 17.4989 1.09408 16.5793 1.27512C15.8425 0.490408 14.7927 0 13.6302 0C11.3999 0 9.59097 1.80891 9.59097 4.03924C9.59097 4.35583 9.62681 4.66399 9.6961 4.9598C6.33915 4.79141 3.36267 3.18343 1.37031 0.738925C1.02269 1.33537 0.82327 2.02971 0.82327 2.76984C0.82327 4.17087 1.53689 5.40774 2.62013 6.1319C1.95832 6.11112 1.33507 5.92947 0.790737 5.62613C0.790436 5.6433 0.790436 5.66047 0.790436 5.67734C0.790436 7.63445 2.18334 9.26684 4.0308 9.63766C3.69222 9.73044 3.33465 9.77953 2.96685 9.77953C2.70598 9.77953 2.45324 9.75453 2.20683 9.70754C2.72074 11.3119 4.21214 12.4798 5.98008 12.5126C4.59742 13.5962 2.85599 14.2417 0.963042 14.2417C0.63771 14.2417 0.315391 14.2227 0 14.1851C1.78661 15.3316 3.91031 16 6.19125 16C13.6209 16 17.6839 9.8452 17.6839 4.50705C17.6839 4.33203 17.68 4.15762 17.6721 3.98471C18.462 3.41538 19.1467 2.70417 19.688 1.89415Z" fill="#161616"/>
</svg>

<svg width="20" height="16" fill="none" xmlns="http://www.w3.org/2000/svg"><path d="M19.688 1.894a8.06 8.06 0 01-2.32.635A4.05 4.05 0 0019.144.295a8.087 8.087 0 01-2.565.98A4.04 4.04 0 009.696 4.96 11.466 11.466 0 011.37.739a4.039 4.039 0 001.25 5.393 4.01 4.01 0 01-1.83-.506v.051a4.042 4.042 0 003.24 3.96 4.025 4.025 0 01-1.823.07 4.043 4.043 0 003.773 2.806A8.104 8.104 0 010 14.185 11.425 11.425 0 006.191 16c7.43 0 11.493-6.155 11.493-11.493 0-.175-.004-.35-.012-.522a8.19 8.19 0 002.016-2.09z" fill="#161616"/></svg>
